img/social/Wa70.svg

<svg width="70" height="70" viewBox="0 0 70 70" fill="none" xmlns="http://www.w3.org/2000/svg">
<path d="M35 70C54.33 70 70 54.33 70 35C70 15.67 54.33 0 35 0C15.67 0 0 15.67 0 35C0 54.33 15.67 70 35 70Z" fill="#5EC14E"/>
<path d="M45.4981 24.4021C44.1476 23.0844 42.5883 22.0633 40.8974 21.3605C39.1625 20.6468 37.2738 20.2735 35.3193 20.2735C31.3115 20.2735 27.677 21.8986 25.0417 24.5339C22.4064 27.1692 20.7813 30.8037 20.7813 34.8115C20.7813 36.0962 20.946 37.3699 21.2644 38.5888C21.5938 39.8076 22.077 40.9825 22.7138 42.0805L22.9225 42.4319L21.7146 48.4052L28.0393 47.428L28.3577 47.6037C29.4228 48.1746 30.5538 48.6248 31.7397 48.9213C32.9036 49.2178 34.1005 49.3715 35.3193 49.3715C39.3272 49.3715 42.9727 47.7354 45.597 45.1111C48.2323 42.4758 49.8683 38.8413 49.8683 34.8225C49.8683 32.868 49.495 30.9794 48.7703 29.2444C48.0566 27.5095 46.9915 25.9064 45.6189 24.5229L45.4981 24.4021ZM32.4864 30.9684C32.3876 30.7707 31.553 28.7503 31.2127 27.9268C30.8832 27.1143 30.5428 27.235 30.2903 27.2131C30.0487 27.2021 29.7742 27.2021 29.4997 27.2021C29.2252 27.2021 28.775 27.3119 28.4017 27.7182C28.0283 28.1244 26.9632 29.1237 26.9632 31.1441C26.9632 33.1754 28.4346 35.1299 28.6432 35.4044C28.8409 35.679 31.5421 39.8295 35.6707 41.6084C36.6479 42.0366 37.4056 42.2892 38.0095 42.4758C38.9977 42.7833 39.8872 42.7503 40.6119 42.6405C41.3805 42.5197 43.0276 41.6413 43.3789 40.686C43.7193 39.7197 43.7193 38.8962 43.6205 38.7315C43.5107 38.5558 43.2472 38.457 42.8299 38.2374C42.4127 38.0397 40.3923 37.0515 40.0189 36.9088C39.6456 36.777 39.3601 36.7111 39.0856 37.1064C38.8221 37.5237 38.0315 38.457 37.8009 38.7315C37.5593 39.006 37.3068 39.039 36.9005 38.8303C36.4832 38.6217 35.1546 38.1935 33.5844 36.788C32.3656 35.6899 31.5421 34.3503 31.3005 33.9441C31.0699 33.5268 31.3005 33.3292 31.4762 33.1095C31.9264 32.5386 32.3876 31.9676 32.5083 31.6931C32.6511 31.4186 32.5852 31.177 32.4864 30.9684ZM41.7319 19.3401C43.7413 20.1746 45.586 21.4044 47.1672 22.9746L47.4966 23.315C48.913 24.8193 50.033 26.5433 50.8017 28.4099C51.6252 30.4303 52.0644 32.6044 52.0644 34.8225C52.0644 39.4452 50.1868 43.6288 47.1562 46.6594C44.1256 49.6899 39.9421 51.5676 35.3193 51.5676C33.9248 51.5676 32.5413 51.3919 31.2017 51.0515C29.9719 50.7441 28.786 50.2829 27.644 49.7009L18.9476 51.0405L20.6056 42.8052C19.9797 41.6523 19.4856 40.4225 19.1452 39.1597C18.7719 37.7433 18.5742 36.2829 18.5742 34.8115C18.5742 30.1997 20.4628 26.0162 23.4934 22.9856C26.513 19.955 30.7076 18.0664 35.3193 18.0664C37.5483 18.0664 39.7225 18.5056 41.7319 19.3401Z" fill="white"/>
</svg>

<svg width="70" height="70" fill="none" xmlns="http://www.w3.org/2000/svg"><path d="M35 70c19.33 0 35-15.67 35-35S54.33 0 35 0 0 15.67 0 35s15.67 35 35 35Z" fill="#5EC14E"/><path d="M45.498 24.402a14.601 14.601 0 0 0-4.6-3.042 14.636 14.636 0 0 0-5.579-1.087 14.49 14.49 0 0 0-10.277 4.26 14.49 14.49 0 0 0-4.26 10.279c0 1.284.164 2.558.482 3.777a14.49 14.49 0 0 0 1.45 3.492l.209.35-1.208 5.974 6.324-.977.319.176a14.717 14.717 0 0 0 6.961 1.767c4.008 0 7.654-1.636 10.278-4.26a14.506 14.506 0 0 0 4.271-10.288c0-1.955-.373-3.844-1.098-5.579a14.592 14.592 0 0 0-3.151-4.721l-.12-.12Zm-13.012 6.566c-.098-.197-.933-2.218-1.273-3.041-.33-.813-.67-.692-.923-.714-.241-.01-.516-.01-.79-.01-.275 0-.725.109-1.098.515-.374.406-1.439 1.406-1.439 3.426 0 2.031 1.472 3.986 1.68 4.26.198.275 2.9 4.425 7.028 6.204a21.1 21.1 0 0 0 2.339.868c.988.307 1.877.274 2.602.165.768-.121 2.416-1 2.767-1.955.34-.966.34-1.79.242-1.955-.11-.175-.374-.274-.791-.494-.417-.197-2.438-1.186-2.811-1.328-.373-.132-.659-.198-.933.197-.264.418-1.054 1.351-1.285 1.625-.242.275-.494.308-.9.1-.418-.21-1.746-.638-3.317-2.043-1.218-1.098-2.042-2.438-2.284-2.844-.23-.417 0-.615.176-.835.45-.57.912-1.141 1.032-1.416.143-.274.077-.516-.022-.725Zm9.246-11.628a16.932 16.932 0 0 1 5.435 3.635l.33.34a16.74 16.74 0 0 1 3.305 5.095 16.985 16.985 0 0 1 1.262 6.412c0 4.623-1.877 8.807-4.908 11.837A16.723 16.723 0 0 1 27.644 49.7l-8.696 1.34 1.658-8.235a16.863 16.863 0 0 1-1.46-3.645 17.063 17.063 0 0 1-.572-4.348c0-4.612 1.889-8.796 4.92-11.826a16.672 16.672 0 0 1 11.825-4.92c2.23 0 4.403.44 6.413 1.274Z" fill="#fff"/></svg>
